docs/.gitbook/assets/icon-torch-16@dark.svg

<svg width="32" height="32" viewBox="0 0 16 16" fill="none" xmlns="http://www.w3.org/2000/svg">
<rect x="0" y="0" width="16" height="16" fill="#181c1f"/>
<path fill-rule="evenodd" clip-rule="evenodd" d="M13.5 4.56045C12.578 4.7132 11.9151 5.12901 11.4826 5.50101C10.9042 5.99844 10.094 6.5 9.1415 6.5H2.75C2.61193 6.5 2.5 6.61193 2.5 6.75V9.25C2.5 9.38807 2.61193 9.5 2.75 9.5H9.1415C10.094 9.5 10.9042 10.0016 11.4826 10.499C11.9151 10.871 12.578 11.2868 13.5 11.4395V4.56045ZM10.5045 4.36374C11.2479 3.72442 12.4858 3 14.25 3C14.6642 3 15 3.33579 15 3.75V12.25C15 12.6642 14.6642 13 14.25 13C12.4858 13 11.2479 12.2756 10.5045 11.6363C10.0372 11.2344 9.56822 11 9.1415 11H2.75C1.7835 11 1 10.2165 1 9.25V6.75C1 5.7835 1.7835 5 2.75 5H9.1415C9.56822 5 10.0372 4.76559 10.5045 4.36374ZM8 8C8 7.58579 8.33579 7.25 8.75 7.25H9.25C9.66421 7.25 10 7.58579 10 8C10 8.41421 9.66421 8.75 9.25 8.75H8.75C8.33579 8.75 8 8.41421 8 8Z" fill="#fff"/>
</svg>

<svg xmlns="http://www.w3.org/2000/svg" width="32" height="32" fill="none" viewBox="0 0 16 16"><path fill="#181c1f" d="M0 0h16v16H0z"/><path fill="#fff" fill-rule="evenodd" d="M13.5 4.56a4.1 4.1 0 0 0-2.017.941c-.579.497-1.389.999-2.341.999H2.75a.25.25 0 0 0-.25.25v2.5c0 .138.112.25.25.25h6.392c.952 0 1.762.502 2.34.999a4.1 4.1 0 0 0 2.018.94zm-2.995-.196C11.248 3.724 12.485 3 14.25 3a.75.75 0 0 1 .75.75v8.5a.75.75 0 0 1-.75.75c-1.764 0-3.002-.724-3.745-1.364-.468-.402-.937-.636-1.364-.636H2.75A1.75 1.75 0 0 1 1 9.25v-2.5C1 5.784 1.784 5 2.75 5h6.392c.426 0 .895-.234 1.363-.636M8 8a.75.75 0 0 1 .75-.75h.5a.75.75 0 0 1 0 1.5h-.5A.75.75 0 0 1 8 8" clip-rule="evenodd"/></svg>
